X:1010
M:C
L:1/8
Q:1/4=112
K:D
 f/e/ |dDDF  A>BAf |e>f       g/f/e/d/ c(ee) f/e/ |     dDDF   A>BAg  | f>a      (g/f/e/d/) Add:|
 f/g/ |a>baf d'c'ba|b>d'      a/f/e/d/ ce  Tef/>g/|     a>baf (d'c'ba)|Tbc'/d'/   a/f/e/d/  Add

